src/assets/img/youtube.svg

<svg width="30" height="30" viewBox="0 0 30 30" fill="none" xmlns="http://www.w3.org/2000/svg">
<path d="M30 0H0V30H30V0Z" fill="#2E2E2E"/>
<path d="M17.3296 19.2044C17.329 19.0924 17.2961 18.9759 17.2546 18.8713C17.1993 18.7337 17.0808 18.6652 16.932 18.6507C16.7576 18.6336 16.618 18.7041 16.4916 18.816C16.4409 18.8601 16.4179 18.9259 16.4179 18.9259L16.4205 22.4787V22.5662C16.4205 22.5662 16.4508 22.607 16.4554 22.6123C16.5581 22.7235 16.6779 22.8117 16.8313 22.8433C17.0841 22.8953 17.2625 22.79 17.3119 22.5557C17.3244 22.4971 17.3316 22.4365 17.3316 22.3766C17.3329 21.3188 17.3349 20.2616 17.3296 19.2044ZM17.3296 19.2044C17.329 19.0924 17.2961 18.9759 17.2546 18.8713C17.1993 18.7337 17.0808 18.6652 16.932 18.6507C16.7576 18.6336 16.618 18.7041 16.4916 18.816C16.4409 18.8601 16.4179 18.9259 16.4179 18.9259L16.4205 22.4787V22.5662C16.4205 22.5662 16.4508 22.607 16.4554 22.6123C16.5581 22.7235 16.6779 22.8117 16.8313 22.8433C17.0841 22.8953 17.2625 22.79 17.3119 22.5557C17.3244 22.4971 17.3316 22.4365 17.3316 22.3766C17.3329 21.3188 17.3349 20.2616 17.3296 19.2044ZM21.3076 13.8466C17.1032 13.7564 12.8968 13.7564 8.69164 13.8466C7.23288 13.8775 6.06641 15.0703 6.06641 16.5297V23.0968C6.06641 24.5569 7.23288 25.7497 8.69164 25.7806C12.8968 25.8708 17.1032 25.8708 21.3076 25.7806C22.767 25.7497 23.9335 24.5569 23.9335 23.0968V16.5297C23.9335 15.0704 22.767 13.8775 21.3076 13.8466ZM9.92658 23.6952H8.71402V16.8405H7.45868V15.6938H11.1846V16.8379H9.92658V23.6952ZM14.266 20.8501V23.6958H13.1923V23.0454C13.1535 23.0869 13.1318 23.1093 13.1114 23.1323C12.8803 23.393 12.6183 23.6102 12.2839 23.7254C12.1206 23.7814 11.9528 23.8005 11.781 23.7709C11.5466 23.732 11.3893 23.5971 11.2945 23.3838C11.2063 23.187 11.1839 22.9763 11.1832 22.7643C11.1806 21.981 11.1819 17.8351 11.1819 17.795H12.253C12.2549 17.8312 12.2589 20.8073 12.2595 22.2588C12.2595 22.3378 12.2602 22.4187 12.276 22.4958C12.3155 22.6906 12.4649 22.7742 12.6525 22.7058C12.8684 22.6268 13.033 22.478 13.1713 22.2996C13.1917 22.2739 13.1917 22.2278 13.1917 22.191V17.7884L14.266 17.7858C14.266 17.7858 14.266 19.864 14.266 20.8501ZM18.3506 23.1271C18.2071 23.5589 17.8911 23.7788 17.4369 23.7742C17.0676 23.7709 16.7681 23.6241 16.5213 23.3561C16.4936 23.3265 16.4172 23.2456 16.4172 23.2456V23.6945H15.3416V15.6931H16.4172C16.4172 16.5449 16.4172 18.3269 16.4172 18.3269C16.4172 18.3269 16.4778 18.2057 16.5331 18.1432C16.6997 17.9569 16.9024 17.8127 17.1526 17.7495C17.5653 17.6462 18.0412 17.7739 18.2677 18.2564C18.4013 18.5415 18.4388 18.8456 18.4388 19.155C18.4408 20.2734 18.4408 21.3918 18.4395 22.5102C18.4388 22.7196 18.4171 22.9263 18.3506 23.1271ZM22.3234 22.902C22.1371 23.4477 21.752 23.7505 21.1872 23.8335C20.837 23.8848 20.49 23.8776 20.1616 23.7288C19.712 23.526 19.4572 23.1594 19.3479 22.6927C19.2972 22.4754 19.2722 22.2477 19.2696 22.0245C19.261 21.1483 19.265 20.2715 19.267 19.3953C19.2676 18.9372 19.3769 18.5145 19.6909 18.1637C20.049 17.7628 20.5072 17.6133 21.0305 17.6469C21.1878 17.6568 21.3484 17.6825 21.4979 17.7318C22.0067 17.899 22.2786 18.2802 22.3852 18.7857C22.4261 18.9806 22.4412 19.1827 22.4445 19.3822C22.453 19.8495 22.4412 20.8797 22.4412 20.8797H20.3814V22.3563C20.3814 22.6216 20.596 22.8362 20.8613 22.8362C21.1259 22.8362 21.3405 22.6216 21.3405 22.3563V21.5973H22.4471C22.4471 21.5972 22.4636 22.4932 22.3234 22.902ZM21.3405 19.1353C21.3405 18.8707 21.1259 18.6554 20.8613 18.6554C20.596 18.6554 20.3814 18.8707 20.3814 19.1353V19.9641H21.3405V19.1353ZM17.2546 18.8713C17.1993 18.7337 17.0808 18.6653 16.932 18.6508C16.7576 18.6337 16.618 18.7041 16.4916 18.816C16.4409 18.8601 16.4179 18.926 16.4179 18.926L16.4205 22.4787V22.5663C16.4205 22.5663 16.4508 22.6071 16.4554 22.6123C16.5581 22.7236 16.6779 22.8118 16.8313 22.8434C17.0841 22.8954 17.2625 22.7901 17.3119 22.5557C17.3244 22.4971 17.3316 22.4366 17.3316 22.3767C17.3329 21.3188 17.3349 20.2616 17.3296 19.2044C17.329 19.0924 17.2961 18.9759 17.2546 18.8713Z" fill="white"/>
<path d="M20.0043 6.25303L20.004 12.1936H18.9032L18.9045 11.5554C18.7828 11.6753 18.6789 11.7873 18.5648 11.8879C18.3624 12.0661 18.1332 12.199 17.8651 12.2515C17.4535 12.332 17.1029 12.2019 16.9716 11.7756C16.9279 11.6336 16.9015 11.4805 16.9004 11.3323V6.25303H17.9929V10.7834C17.9929 10.8434 17.9977 10.9041 18.0082 10.963C18.0414 11.1497 18.1794 11.2375 18.3591 11.1752C18.5783 11.0994 18.7455 10.9476 18.8874 10.7689C18.9075 10.7433 18.9039 10.6956 18.9039 10.6582V6.25303H20.0043Z" fill="white"/>
<path d="M10.8995 7.28535C10.6605 6.27811 10.1599 4.15179 10.1599 4.15179H8.90723C8.90723 4.15179 9.86964 7.3436 10.3 8.76708C10.3155 8.81855 10.3226 8.87444 10.3226 8.92835L10.3221 12.1924H11.4772L11.4768 8.92835C11.4768 8.87444 11.4839 8.81855 11.4993 8.76708C11.9297 7.3436 12.8921 4.15179 12.8921 4.15179H11.6395C11.6395 4.15179 11.1388 6.27811 10.8999 7.28535H10.8995Z" fill="white"/>
<path d="M14.3999 6.10432C13.5294 6.10432 12.8237 6.81 12.8237 7.68052V10.7652C12.8237 11.6357 13.5294 12.3414 14.3999 12.3414C15.2704 12.3414 15.9761 11.6357 15.9761 10.7652V7.68052C15.9762 6.81 15.2704 6.10432 14.3999 6.10432ZM14.8548 10.8274C14.8548 11.0782 14.6507 11.2822 14.4 11.2822C14.1492 11.2822 13.9452 11.0782 13.9452 10.8274V7.61818C13.9452 7.36737 14.1492 7.16337 14.4 7.16337C14.6507 7.16337 14.8548 7.36744 14.8548 7.61818V10.8274Z" fill="white"/>
</svg>

<svg width="30" height="30" fill="none" xmlns="http://www.w3.org/2000/svg"><path d="M30 0H0v30h30V0z" fill="#2E2E2E"/><path d="M17.33 19.204a.944.944 0 00-.075-.333c-.056-.137-.174-.206-.323-.22-.174-.017-.314.053-.44.165a.29.29 0 00-.074.11l.003 3.553v.087l.034.046a.7.7 0 00.376.231c.253.052.431-.053.48-.287a.863.863 0 00.02-.18c.002-1.057.004-2.114-.001-3.172zm0 0a.944.944 0 00-.075-.333c-.056-.137-.174-.206-.323-.22-.174-.017-.314.053-.44.165a.29.29 0 00-.074.11l.003 3.553v.087l.034.046a.7.7 0 00.376.231c.253.052.431-.053.48-.287a.863.863 0 00.02-.18c.002-1.057.004-2.114-.001-3.172zm3.978-5.357a294.78 294.78 0 00-12.616 0 2.683 2.683 0 00-2.626 2.683v6.567a2.683 2.683 0 002.626 2.684c4.205.09 8.411.09 12.616 0a2.684 2.684 0 002.625-2.684V16.53a2.684 2.684 0 00-2.625-2.683zM9.927 23.695H8.714V16.84H7.459v-1.146h3.726v1.144H9.927v6.857zm4.339-2.845v2.846h-1.074v-.65a1.92 1.92 0 00-.08.086c-.232.261-.494.478-.828.593a1.004 1.004 0 01-.503.046.619.619 0 01-.487-.387 1.504 1.504 0 01-.11-.62c-.003-.783-.002-4.929-.002-4.969h1.071c.002.036.006 3.012.006 4.464 0 .079.001.16.017.237.04.195.189.278.377.21.215-.08.38-.228.518-.406.02-.026.02-.072.02-.109v-4.403l1.075-.002v3.064zm4.085 2.277c-.144.432-.46.652-.914.647a1.213 1.213 0 01-.916-.418l-.104-.11v.449h-1.075v-8.002h1.075v2.634s.06-.121.116-.184c.167-.186.37-.33.62-.393.412-.104.888.024 1.115.506.133.285.17.59.17.899.003 1.118.003 2.237.002 3.355-.001.21-.023.416-.09.617zm3.972-.225c-.186.546-.571.848-1.136.931-.35.052-.697.045-1.025-.104-.45-.203-.705-.57-.814-1.036a3.122 3.122 0 01-.078-.669c-.009-.876-.005-1.753-.003-2.629 0-.458.11-.88.424-1.231.358-.401.816-.55 1.34-.517.157.01.317.036.467.085.509.167.78.548.887 1.054.041.195.056.397.06.596.008.467-.004 1.498-.004 1.498h-2.06v1.476a.48.48 0 10.96 0v-.759h1.106s.017.896-.124 1.305zm-.983-3.767a.48.48 0 10-.959 0v.83h.96v-.83zm-4.085-.264c-.056-.137-.174-.206-.323-.22-.174-.017-.314.053-.44.165a.29.29 0 00-.074.11l.003 3.553v.087l.034.046a.7.7 0 00.376.231c.253.052.431-.053.48-.287a.863.863 0 00.02-.18c.002-1.057.004-2.114-.001-3.172a.944.944 0 00-.075-.333zm2.749-12.618v5.94h-1.1v-.638c-.121.12-.225.232-.34.333a1.488 1.488 0 01-.699.364c-.412.08-.762-.05-.893-.476a1.57 1.57 0 01-.072-.444V6.253h1.093v4.53c0 .06.005.121.015.18.033.187.171.275.351.212.22-.076.386-.227.528-.406.02-.026.017-.073.017-.11V6.252h1.1zM10.9 7.285c-.24-1.007-.74-3.133-.74-3.133H8.907L10.3 8.767a.566.566 0 01.023.161v3.264h1.154V8.928a.57.57 0 01.022-.16l1.393-4.616H11.64s-.501 2.126-.74 3.133zm3.5-1.181c-.87 0-1.576.706-1.576 1.577v3.084a1.576 1.576 0 003.152 0V7.681c0-.871-.706-1.577-1.576-1.577zm.455 4.723a.455.455 0 01-.91 0V7.618a.455.455 0 01.91 0v3.21z" fill="#fff"/></svg>
